symbols/web/tablet/materialsymbolssharp/tablet_wght600gradN25_24px.svg

<svg xmlns="http://www.w3.org/2000/svg" height="24" width="24"><path d="M.8 20.25V3.75h22.4v16.5Zm5.45-2.525h11.5V6.275H6.25Zm-2.925 0h1.05V6.275h-1.05Zm16.3 0h1.05V6.275h-1.05Zm-16.3-11.45h1.05Zm16.3 0h1.05Z"/></svg>

<svg xmlns="http://www.w3.org/2000/svg" height="24" width="24"><path d="M0.8 20.25V3.75H23.2V20.25ZM6.25 17.725H17.75V6.275H6.25ZM3.325 17.725H4.375V6.275H3.325ZM19.625 17.725H20.675V6.275H19.625ZM3.325 6.275H4.375ZM19.625 6.275H20.675Z"/></svg>
